sources/images/svg/i-5.svg

<?xml version="1.0" encoding="UTF-8" standalone="no"?>
<svg width="44px" height="43px" viewBox="0 0 44 43" version="1.1" xmlns="http://www.w3.org/2000/svg" xmlns:xlink="http://www.w3.org/1999/xlink" xmlns:sketch="http://www.bohemiancoding.com/sketch/ns">
    <!-- Generator: Sketch 3.0.4 (8053) - http://www.bohemiancoding.com/sketch -->
    <title>i-5</title>
    <desc>Created with Sketch.</desc>
    <defs></defs>
    <g id="Page-1" stroke="none" stroke-width="1" fill="none" fill-rule="evenodd" sketch:type="MSPage">
        <g id="i-5" sketch:type="MSLayerGroup" transform="translate(1.000000, 0.000000)" fill="#63B1FF">
            <path d="M37.89375,34.3902533 L18.8792632,34.3902533 C16.5640526,34.3902533 14.6811053,36.2444133 14.6811053,38.5234133 C14.6811053,40.8024133 16.5640526,42.6565733 18.8792632,42.6565733 L37.89375,42.6565733 C40.2083947,42.6565733 42.0919079,40.8024133 42.0919079,38.5234133 C42.0919079,36.2444133 40.2083947,34.3902533 37.89375,34.3902533 L37.89375,34.3902533 Z M37.89375,40.6499067 L18.8792632,40.6499067 C17.6560263,40.6499067 16.6613684,39.69588 16.6613684,38.5234133 C16.6613684,37.3509467 17.6560263,36.39692 18.8792632,36.39692 L37.89375,36.39692 C39.1164211,36.39692 40.1116447,37.3509467 40.1116447,38.5234133 C40.1116447,39.69588 39.1164211,40.6499067 37.89375,40.6499067 L37.89375,40.6499067 Z" id="Fill-1" sketch:type="MSShapeGroup"></path>
            <path d="M19.5610395,37.2334133 C18.8583289,37.2334133 18.2880132,37.8113333 18.2880132,38.5234133 C18.2880132,39.2354933 18.8583289,39.8134133 19.5610395,39.8134133 C20.26375,39.8134133 20.8340658,39.2354933 20.8340658,38.5234133 C20.8340658,37.8113333 20.26375,37.2334133 19.5610395,37.2334133" id="Fill-2" sketch:type="MSShapeGroup"></path>
            <path d="M28.3884868,37.2334133 C27.6857763,37.2334133 27.1154605,37.8113333 27.1154605,38.5234133 C27.1154605,39.2354933 27.6857763,39.8134133 28.3884868,39.8134133 C29.0911974,39.8134133 29.6615132,39.2354933 29.6615132,38.5234133 C29.6615132,37.8113333 29.0911974,37.2334133 28.3884868,37.2334133" id="Fill-3" sketch:type="MSShapeGroup"></path>
            <path d="M32.8016447,37.2334133 C32.0983684,37.2334133 31.5286184,37.8113333 31.5286184,38.5234133 C31.5286184,39.2354933 32.0983684,39.8134133 32.8016447,39.8134133 C33.5043553,39.8134133 34.0746711,39.2354933 34.0746711,38.5234133 C34.0746711,37.8113333 33.5043553,37.2334133 32.8016447,37.2334133" id="Fill-4" sketch:type="MSShapeGroup"></path>
            <path d="M37.2114079,37.2334133 C36.5081316,37.2334133 35.9383816,37.8113333 35.9383816,38.5234133 C35.9383816,39.2354933 36.5081316,39.8134133 37.2114079,39.8134133 C37.9141184,39.8134133 38.4844342,39.2354933 38.4844342,38.5234133 C38.4844342,37.8113333 37.9141184,37.2334133 37.2114079,37.2334133" id="Fill-5" sketch:type="MSShapeGroup"></path>
            <path d="M23.9753289,37.2334133 C23.2726184,37.2334133 22.7023026,37.8113333 22.7023026,38.5234133 C22.7023026,39.2354933 23.2726184,39.8134133 23.9753289,39.8134133 C24.6780395,39.8134133 25.2483553,39.2354933 25.2483553,38.5234133 C25.2483553,37.8113333 24.6780395,37.2334133 23.9753289,37.2334133" id="Fill-6" sketch:type="MSShapeGroup"></path>
            <path d="M18.4339868,29.3953733 L18.4339868,31.8607067 C18.4339868,32.41512 18.8775658,32.86404 19.4241184,32.86404 L38.7899605,32.86404 C39.3365132,32.86404 39.7800921,32.41512 39.7800921,31.8607067 L39.7800921,25.09824 C39.7800921,25.0776 39.7795263,25.05696 39.7778289,25.03632 C39.7189868,24.0702533 38.9263158,22.63348 36.9862237,22.63348 L34.9324079,22.63348 L34.9324079,17.93444 C34.9623947,17.6087867 34.9788026,16.64272 34.2585526,15.7873067 C33.5394342,14.93304 32.3620263,14.5001733 30.7574474,14.5001733 L26.4619737,14.5001733 C26.1406053,14.4973067 24.1637368,14.5254 22.2553289,16.3491733 C19.7064474,18.7846933 18.4339868,23.1512 18.4339868,29.3953733 L18.4339868,29.3953733 Z M37.7998289,25.1458267 L37.7998289,30.8573733 L20.41425,30.8573733 L20.41425,30.2060667 L32.2788553,27.61632 C32.7348816,27.51656 33.0607763,27.1083467 33.0607763,26.6353467 L33.0607763,24.6401467 L36.9862237,24.6401467 C37.4790263,24.6401467 37.7528684,24.8184533 37.7998289,25.1458267 L37.7998289,25.1458267 Z M32.7365789,17.0715733 C32.9957105,17.3639733 32.9640263,17.72116 32.9645921,17.72116 C32.9645921,17.72116 32.9645921,17.72116 32.9645921,17.7205867 L32.9532763,22.63348 L32.0706447,22.63348 C31.5235263,22.63348 31.0805132,23.0824 31.0805132,23.6368133 L31.0805132,25.8252267 L29.3412763,26.2047733 L29.3412763,16.5062667 L30.7574474,16.50684 C31.7108026,16.50684 32.4140789,16.7075067 32.7365789,17.0715733 L32.7365789,17.0715733 Z M26.39125,16.50512 L27.3610132,16.5056933 L27.3610132,26.6370667 L20.41425,28.15296 C20.6105789,22.0440933 22.2061053,19.1894667 23.5583421,17.8627733 C24.97225,16.47588 26.3431579,16.50512 26.39125,16.50512 L26.39125,16.50512 Z" id="Fill-7" sketch:type="MSShapeGroup"></path>
            <path d="M14.8219868,25.0346 C14.6239605,24.6367067 14.1894342,24.4199867 13.7577368,24.49968 C13.7441579,24.5025467 12.3557105,24.75768 10.1259342,24.75768 C9.78532895,24.75768 8.69222368,24.4079467 7.68851316,23.9773733 C6.93657895,23.6557333 6.18068421,23.3226267 5.47684211,23.0072933 L14.7540921,9.27137333 L18.9233947,18.2813067 C19.2871974,17.5290933 19.7013553,16.8474 20.1641711,16.2362267 L15.8115526,6.83012 C15.6604868,6.50446667 15.3487368,6.28545333 14.9945526,6.25621333 C14.6448947,6.22697333 14.2991974,6.39209333 14.0977763,6.68965333 L3.64028947,22.1730933 C3.45697368,22.0888133 3.28553947,22.0096933 3.12994737,21.9374533 L14.6064211,2.91884 L22.9229605,13.7605733 C23.61775,13.3655467 24.2735,13.12704 24.8341974,12.9831333 L15.2910263,0.541226667 C15.0918684,0.280933333 14.7846447,0.135306667 14.4542237,0.155373333 C14.1294605,0.173146667 13.8341184,0.352026667 13.6643816,0.63296 L0.865657895,21.8428533 C0.849815789,21.8692267 0.840197368,21.8984667 0.826618421,21.9259867 C0.823789474,21.9322933 0.820960526,21.9391733 0.817565789,21.94548 C0.792671053,21.9999467 0.772868421,22.0549867 0.757592105,22.11232 C0.755328947,22.1232133 0.749105263,22.13296 0.746842105,22.1438533 C0.731,22.2097867 0.357013158,23.7956267 -0.0277236842,26.2105067 C-0.401710526,28.5634667 1.43823684,30.7278 3.35796053,31.3836933 C4.01484211,31.6078667 4.70793421,31.72196 5.41913158,31.72196 C6.61577632,31.72196 7.45993421,31.4008933 7.55215789,31.3642 C7.59119737,31.3481467 7.63023684,31.3303733 7.66701316,31.3097333 L8.08117105,31.0798267 C9.49564474,30.2955067 9.52110526,30.2794533 10.7856447,29.3477867 L10.9435,29.2314 C13.1274474,27.6232 14.5549342,26.2758667 14.6149079,26.2191067 C14.9357105,25.91524 15.0200132,25.4324933 14.8219868,25.0346 L14.8219868,25.0346 Z M9.77967105,27.6082933 L9.62125,27.72468 C8.44723684,28.5892667 8.44723684,28.5892667 7.13064474,29.3196933 L6.78664474,29.51004 C6.62878947,29.5622133 6.10713158,29.7152933 5.41856579,29.7152933 C4.9235,29.7152933 4.44257895,29.6367467 3.99051316,29.48252 C2.85440789,29.0943733 1.72735526,27.7860267 1.92707895,26.5304267 C2.10247368,25.42848 2.27786842,24.4973867 2.41422368,23.8197067 L3.54240789,24.36724 C3.62444737,24.4068 3.70988158,24.4303067 3.79531579,24.4457867 C4.73056579,24.8706267 5.82876316,25.3602533 6.91790789,25.8258 C7.43164474,26.04596 9.18106579,26.7643467 10.1259342,26.7643467 C10.39525,26.7643467 10.6543816,26.7609067 10.9005,26.7546 C10.5559342,27.0257867 10.18025,27.3130267 9.77967105,27.6082933 L9.77967105,27.6082933 Z" id="Fill-8" sketch:type="MSShapeGroup"></path>
        </g>
    </g>
</svg>

<svg width="44" height="43" viewBox="0 0 44 43" xmlns="http://www.w3.org/2000/svg"><g id="i-5" transform="translate(1)" fill="#63B1FF" fill-rule="evenodd"><path d="M37.894 34.39H18.88c-2.316 0-4.2 1.854-4.2 4.133 0 2.28 1.884 4.134 4.2 4.134h19.014c2.314 0 4.198-1.855 4.198-4.134 0-2.28-1.884-4.133-4.198-4.133zm0 6.26H18.88c-1.224 0-2.22-.954-2.22-2.127 0-1.172.996-2.126 2.22-2.126h19.014c1.222 0 2.218.954 2.218 2.126 0 1.173-.996 2.127-2.218 2.127z" id="Fill-1"/><path d="M19.56 37.233c-.702 0-1.272.578-1.272 1.29 0 .712.57 1.29 1.273 1.29.705 0 1.275-.578 1.275-1.29 0-.712-.57-1.29-1.273-1.29" id="Fill-2"/><path d="M28.388 37.233c-.702 0-1.273.578-1.273 1.29 0 .712.57 1.29 1.273 1.29s1.274-.578 1.274-1.29c0-.712-.57-1.29-1.274-1.29" id="Fill-3"/><path d="M32.802 37.233c-.704 0-1.273.578-1.273 1.29 0 .712.567 1.29 1.27 1.29.703 0 1.274-.578 1.274-1.29 0-.712-.57-1.29-1.273-1.29" id="Fill-4"/><path d="M37.21 37.233c-.702 0-1.272.578-1.272 1.29 0 .712.57 1.29 1.273 1.29.705 0 1.275-.578 1.275-1.29 0-.712-.57-1.29-1.273-1.29" id="Fill-5"/><path d="M23.975 37.233c-.702 0-1.273.578-1.273 1.29 0 .712.57 1.29 1.273 1.29s1.273-.578 1.273-1.29c0-.712-.57-1.29-1.273-1.29" id="Fill-6"/><path d="M18.434 29.395v2.466c0 .556.444 1.005.99 1.005H38.79c.547 0 .99-.45.99-1.003V25.1c0-.02 0-.04-.002-.062-.06-.966-.852-2.403-2.792-2.403h-2.054v-4.7c.03-.324.047-1.29-.673-2.146-.72-.855-1.9-1.288-3.504-1.288H26.46c-.32-.003-2.297.025-4.206 1.85-2.55 2.435-3.82 6.8-3.82 13.045zm19.366-4.25v5.712H20.414v-.65l11.865-2.59c.454-.1.78-.51.78-.982V24.64h3.925c.493 0 .767.178.814.506zm-5.063-8.073c.26.292.227.65.228.65l-.012 4.91h-.882c-.545 0-.99.45-.99 1.005v2.188l-1.74.38v-9.7l1.418.002c.954 0 1.657.2 1.98.565zm-6.346-.567h.97v10.132l-6.945 1.516c.197-6.11 1.792-8.964 3.144-10.29 1.413-1.387 2.784-1.358 2.832-1.358z" id="Fill-7"/><path d="M14.822 25.035c-.198-.398-.633-.615-1.064-.535-.014.003-1.402.258-3.632.258-.34 0-1.434-.35-2.437-.78-.754-.322-1.51-.655-2.214-.97L14.754 9.27l4.17 9.01c.363-.75.777-1.433 1.24-2.044L15.812 6.83c-.152-.326-.463-.545-.817-.574-.35-.03-.696.136-.897.434L3.64 22.173c-.183-.084-.354-.163-.51-.236L14.606 2.92l8.317 10.84c.695-.394 1.35-.633 1.91-.777L15.293.54c-.2-.26-.506-.405-.837-.385-.325.018-.62.197-.79.478l-12.8 21.21c-.016.026-.026.055-.04.083-.002.006-.005.013-.008.02-.025.054-.045.11-.06.166-.003.01-.01.02-.01.032-.017.066-.39 1.652-.776 4.067-.374 2.354 1.466 4.52 3.386 5.175.657.224 1.35.338 2.06.338 1.198 0 2.042-.32 2.134-.358.04-.016.078-.034.115-.054l.414-.23c1.417-.783 1.44-.8 2.707-1.73l.158-.118c2.183-1.607 3.61-2.954 3.67-3.01.322-.305.406-.788.208-1.185zM9.78 27.608l-.16.117c-1.173.864-1.173.864-2.49 1.595l-.343.19c-.158.052-.68.205-1.368.205-.498 0-.978-.078-1.43-.232-1.137-.39-2.264-1.697-2.064-2.953.175-1.102.35-2.033.487-2.71l1.128.547c.083.04.17.063.254.08.936.424 2.034.913 3.123 1.38.514.22 2.263.937 3.208.937.27 0 .528-.003.774-.01-.345.272-.72.56-1.12.854z" id="Fill-8"/></g></svg>
